assets/images/cup.svg

<svg enable-background="new 0 0 32 32" viewBox="0 0 32 32" xmlns="http://www.w3.org/2000/svg"><path d="m29.8 3.6c-.1-.6-.5-1-1.2-1-1.2 0-2.4 0-3.6 0h-.5c0-.6 0-1.1 0-1.6.1-.5-.3-1-.8-1-.1 0-.1 0-.2 0-5 0-10 0-15 0-.5 0-1 .3-1.1.8v.2 1.6h-4.1c-.8 0-1.2.4-1.2 1.1-.1 1.3-.1 2.6 0 3.9.2 3 1.8 5.7 4.4 7.2 1.1.6 2 1.4 2.6 2.5 1.1 1.8 2.9 2.8 5 3.3.3.1.4.1.4.5-.1 1.3-.1 2.6-.2 3.9-.3 2.7-1.8 4.2-4.4 4.5-.6 0-1.2.4-1.4 1-.1.2-.2.5-.3.7-.3.6-.1.8.5.8h14.4.3c.2 0 .4-.1.5-.4 0-.1 0-.1 0-.2-.1-.4-.2-.7-.4-1-.2-.6-.7-1-1.4-1-2.5-.3-3.8-1.6-4.3-4-.3-1.4-.4-2.8-.3-4.2 0-.3.1-.5.4-.6 2.5-.6 4.6-2.2 5.7-4.5.1-.2.3-.4.6-.5 2.3-1 4.1-2.9 5-5.2s.9-4.6.6-6.8zm-22.4 9.3c-.1-.1-.2-.1-.3-.2-1.7-1.3-2.8-3.2-3-5.3 0-.7 0-1.5-.1-2.2 0-.3.1-.5.3-.5h.2 2.9zm17.4-.1c-.1 0-.2.1-.2.1v-8.2h3c.2 0 .3.2.4.3 0 3.1-.6 5.9-3.2 7.8z" fill="#fbb03b"/></svg>

<?xml version="1.0" encoding="utf-8"?>
<!-- Generator: Adobe Illustrator 25.2.1, SVG Export Plug-In . SVG Version: 6.00 Build 0)  -->
<svg version="1.1" id="Layer_1" xmlns="http://www.w3.org/2000/svg" xmlns:xlink="http://www.w3.org/1999/xlink" x="0px" y="0px"
	 viewBox="0 0 32 32" style="enable-background:new 0 0 32 32;" xml:space="preserve">
<style type="text/css">
	.st0{fill:#B2A740;}
	.st1{opacity:0.6;fill:#B2A740;}
	.st2{fill:#FFF203;}
	.st3{opacity:0.5;fill:#FFF203;}
	.st4{fill:#1A1A1A;}
	.st5{fill:#A799E6;}
	.st6{fill:#9E996A;}
	.st7{fill:#CDB3ED;}
	.st8{opacity:0.6;fill:#CDB3ED;}
	.st9{opacity:0.3;fill:#FFF203;}
	.st10{opacity:0.5;fill:#CDB3ED;}
	.st11{opacity:0.4;fill:#9E996A;}
	.st12{opacity:0.4;}
	.st13{opacity:0.5;fill:#B2A740;}
	.st14{fill:#FFF426;}
	.st15{opacity:0.4;fill:#CDB3ED;}
	.st16{opacity:0.7;fill:#CDB3ED;}
	.st17{opacity:0.6;fill:#FFF203;}
	.st18{opacity:0.6;}
	.st19{opacity:0.7;fill:#FFF203;}
	.st20{fill:#8A604F;}
	.st21{opacity:0.4;fill:#8A604F;}
	.st22{fill:#774632;}
	.st23{fill:none;}
	.st24{fill:#E64B00;}
	.st25{opacity:0.3;fill:#E64B00;}
	.st26{opacity:0.6;fill:#E64B00;}
	.st27{fill:#386AC4;}
	.st28{opacity:0.5;}
	.st29{fill:#D1847E;}
	.st30{opacity:0.6;fill:#D1847E;}
	.st31{opacity:0.5;fill:#386AC4;}
	.st32{opacity:0.3;fill:#386AC4;}
	.st33{opacity:0.4;fill:#386AC4;}
	.st34{opacity:0.7;fill:#386AC4;}
	.st35{opacity:0.7;fill:#E64B00;}
	.st36{fill:#253E6B;}
	.st37{fill:#7A43C3;}
	.st38{fill:#CDCAC6;}
	.st39{opacity:0.6;fill:#CDCAC6;}
	.st40{opacity:0.5;fill:#7A43C3;}
	.st41{opacity:0.3;fill:#7A43C3;}
	.st42{fill:#543961;}
	.st43{fill:#E2BA33;}
	.st44{opacity:0.7;fill:#E2BA33;}
	.st45{opacity:0.6;fill:#7A43C3;}
	.st46{opacity:0.5;fill:#E2BA33;}
	.st47{opacity:0.4;fill:#E2BA33;}
	.st48{fill:#E2DA7E;}
	.st49{opacity:0.4;fill:#E2DA7E;}
	.st50{fill:#F2EF94;}
	.st51{opacity:0.4;fill:#FFFFFF;}
	.st52{opacity:0.5;fill:#CDCAC6;}
	.st53{fill:#6C41B1;}
	.st54{fill:#090704;}
	.st55{fill:#D8CFC0;}
	.st56{fill:#2A41E8;}
	.st57{opacity:0.6;fill:#D8CFC0;}
	.st58{fill:#FF822A;}
	.st59{opacity:0.5;fill:#FF822A;}
	.st60{fill:#A58F64;}
	.st61{opacity:0.5;fill:#A58F64;}
	.st62{fill:#561A91;}
	.st63{opacity:0.4;fill:#D8CFC0;}
	.st64{opacity:0.7;fill:#D8CFC0;}
	.st65{opacity:0.3;fill:#FF822A;}
	.st66{opacity:0.7;fill:#FF822A;}
	.st67{opacity:0.3;}
	.st68{fill:#E83C7D;}
	.st69{fill:#BF9726;}
	.st70{opacity:0.4;fill:#E83C7D;}
	.st71{fill:#767676;}
	.st72{opacity:0.5;fill:#E83C7D;}
	.st73{opacity:0.5;fill:#767676;}
	.st74{opacity:0.9;fill:#767676;}
	.st75{opacity:0.3;fill:#E83C7D;}
	.st76{opacity:0.4;fill:#7F3451;}
	.st77{opacity:0.4;fill:#BF9726;}
	.st78{opacity:0.7;fill:#BF9726;}
	.st79{opacity:0.6;fill:#E83C7D;}
	.st80{opacity:0.2;fill:#E83C7D;}
	.st81{fill:#7F3451;}
	.st82{fill:#968B22;}
	.st83{opacity:0.4;fill:#968B22;}
	.st84{fill:#FFEAA6;}
	.st85{fill:#1274C4;}
	.st86{fill:#D1D1D1;}
	.st87{opacity:0.3;fill:#1274C4;}
	.st88{opacity:0.6;fill:#D1D1D1;}
	.st89{opacity:0.5;fill:#1274C4;}
	.st90{fill:#0A3F6B;}
	.st91{fill:#E67E5B;}
	.st92{opacity:0.6;fill:#D46642;}
	.st93{opacity:0.6;fill:#1274C4;}
	.st94{opacity:0.4;fill:#001B6A;}
	.st95{opacity:0.3;fill:#D46642;}
	.st96{fill:#1065AB;}
	.st97{opacity:0.4;fill:#1274C4;}
	.st98{opacity:0.7;fill:#E67E5B;}
	.st99{fill:#C7C4BE;}
	.st100{fill:#EFEBE0;}
	.st101{opacity:0.3;fill:#C7C4BE;}
	.st102{opacity:0.5;fill:#D1D1D1;}
	.st103{opacity:0.9;fill:#D1D1D1;}
	.st104{fill:#0F64A8;}
	.st105{fill:#D1AB3E;}
	.st106{opacity:0.5;fill:#D1AB3E;}
	.st107{opacity:0.8;fill:#D1AB3E;}
	.st108{opacity:0.1;fill:#D1AB3E;}
	.st109{fill:#C16A23;}
	.st110{opacity:0.5;fill:#C16A23;}
	.st111{fill:#6DEC6E;}
	.st112{opacity:0.5;fill:#6DEC6E;}
	.st113{fill:#826315;}
	.st114{opacity:0.3;fill:#EC1C24;}
	.st115{opacity:0.4;fill:#826315;}
	.st116{fill:#C87C3D;}
	.st117{fill:#EE3A40;}
	.st118{fill:none;stroke:#1A1A1A;stroke-width:0.1469;stroke-linejoin:round;stroke-miterlimit:10;}
	.st119{fill:none;stroke:#CA7F42;stroke-width:0.1352;stroke-miterlimit:10;}
	.st120{opacity:0.5;fill:#FFFFFF;}
	.st121{fill:#C57330;}
	.st122{opacity:0.3;fill:#C57330;}
	.st123{opacity:0.5;fill:#8FF08F;}
	.st124{opacity:0.5;fill:#C57330;}
	.st125{fill:#8FF08F;}
	.st126{opacity:0.5;fill:#EE3A40;}
	.st127{opacity:0.3;fill:#EE3A40;}
	.st128{opacity:0.4;fill:#EE3A40;}
	.st129{opacity:0.2;fill:#EE3A40;}
	.st130{opacity:0.4;fill:#C57330;}
	.st131{opacity:0.4;fill:#D1AB3E;}
	.st132{opacity:0.6;fill:#D1AB3E;}
	.st133{opacity:0.9;fill:#D1AB3E;}
	.st134{fill:none;stroke:#1A1A1A;stroke-width:0.1469;stroke-miterlimit:10;}
	.st135{opacity:0.7;}
	.st136{fill:#F05459;}
	.st137{fill:#EADBE1;}
	.st138{fill:#D2B1BE;}
	.st139{fill:none;stroke:#EED3B0;stroke-width:0.1115;stroke-miterlimit:10;}
	.st140{opacity:0.5;fill:#D2B1BE;}
	.st141{fill:#561B32;}
	.st142{fill:#E10A52;}
	.st143{opacity:0.4;fill:#E10A52;}
	.st144{opacity:0.2;fill:#E10A52;}
	.st145{fill:#DEC5CF;}
	.st146{opacity:0.6;fill:#D2B1BE;}
	.st147{opacity:0.3;fill:#D2B1BE;}
	.st148{opacity:0.4;fill:#DEC5CF;}
	.st149{fill:#ECCEA7;}
	.st150{opacity:0.4;fill:#ECCEA7;}
	.st151{opacity:0.9;fill:#ECCEA7;}
	.st152{opacity:0.9;fill:#E1B375;}
	.st153{fill:#E1B375;}
	.st154{opacity:0.5;fill:#ECCEA7;}
	.st155{opacity:0.8;fill:#ECCEA7;}
	.st156{opacity:0.7;fill:#ECCEA7;}
	.st157{opacity:0.6;fill:#E10A52;}
	.st158{opacity:0.7;fill:#E10A52;}
	.st159{fill:#D89C4C;}
	.st160{opacity:0.8;fill:#D89C4C;}
	.st161{fill:#D5FEE3;}
	.st162{opacity:0.4;fill:#EFD7B7;}
	.st163{fill:#EBCCA2;}
	.st164{opacity:0.4;fill:#EBCCA2;}
	.st165{fill:#EDD1AD;}
	.st166{fill:url(#SVGID_1_);}
	.st167{opacity:0.3;fill:#FFFFFF;}
	.st168{fill:url(#SVGID_2_);}
	.st169{fill:#B1778D;}
	.st170{fill:url(#SVGID_3_);}
	.st171{opacity:0.2;}
	.st172{fill:#FFFFFF;}
	.st173{fill:url(#SVGID_4_);}
	.st174{fill:url(#SVGID_5_);}
	.st175{opacity:0.2;fill:url(#SVGID_6_);}
	.st176{opacity:0.4;fill:url(#SVGID_7_);}
	.st177{opacity:0.4;fill:url(#SVGID_8_);}
	.st178{clip-path:url(#SVGID_10_);fill:#764659;}
	.st179{clip-path:url(#SVGID_10_);fill:#78495B;}
	.st180{clip-path:url(#SVGID_10_);fill:#794B5D;}
	.st181{clip-path:url(#SVGID_10_);fill:#7D4F61;}
	.st182{clip-path:url(#SVGID_10_);fill:#7F5263;}
	.st183{clip-path:url(#SVGID_10_);fill:#805465;}
	.st184{clip-path:url(#SVGID_10_);fill:#825667;}
	.st185{clip-path:url(#SVGID_10_);fill:#845969;}
	.st186{clip-path:url(#SVGID_10_);fill:#855B6B;}
	.st187{clip-path:url(#SVGID_10_);fill:#875D6D;}
	.st188{clip-path:url(#SVGID_10_);fill:#895F70;}
	.st189{clip-path:url(#SVGID_10_);fill:#E0004B;}
	.st190{clip-path:url(#SVGID_10_);fill:#E0034D;}
	.st191{clip-path:url(#SVGID_10_);fill:#E10850;}
	.st192{clip-path:url(#SVGID_10_);fill:#E10A52;}
	.st193{clip-path:url(#SVGID_10_);fill:#E20F56;}
	.st194{clip-path:url(#SVGID_10_);fill:#E21258;}
	.st195{clip-path:url(#SVGID_10_);fill:#E3175B;}
	.st196{fill:url(#SVGID_11_);}
	.st197{fill:url(#SVGID_12_);}
	.st198{fill:url(#SVGID_13_);}
	.st199{opacity:0.2;fill:#FFFFFF;}
	.st200{fill:#2F2C1E;}
	.st201{fill:url(#SVGID_14_);}
	.st202{fill:url(#SVGID_15_);}
	.st203{opacity:0.1;fill:#FFFFFF;}
	.st204{fill:url(#SVGID_16_);}
	.st205{fill:url(#SVGID_17_);}
	.st206{opacity:0.2;fill:url(#SVGID_18_);}
	.st207{fill:url(#SVGID_19_);}
	.st208{fill:url(#SVGID_20_);}
	.st209{fill:url(#SVGID_21_);}
	.st210{opacity:0.2;fill:url(#SVGID_22_);}
	.st211{fill:url(#SVGID_23_);}
	.st212{fill:url(#SVGID_24_);}
	.st213{opacity:0.4;fill:url(#SVGID_25_);}
	.st214{opacity:0.4;fill:url(#SVGID_26_);}
	.st215{opacity:0.4;fill:#561B32;}
	.st216{fill:#E52968;}
	.st217{fill:none;stroke:#AC5773;stroke-width:3.185000e-02;stroke-miterlimit:10;}
	.st218{fill:none;stroke:#F7EBDB;stroke-width:3.166700e-02;stroke-miterlimit:10;}
	.st219{fill:#FBB03B;}
</style>
<path class="st219" d="M29.8,3.6c-0.1-0.6-0.5-1-1.2-1c-1.2,0-2.4,0-3.6,0h-0.5c0-0.6,0-1.1,0-1.6c0.1-0.5-0.3-1-0.8-1
	c-0.1,0-0.1,0-0.2,0c-5,0-10,0-15,0C8,0,7.5,0.3,7.4,0.8c0,0.1,0,0.1,0,0.2c0,0.5,0,1,0,1.6H3.3C2.5,2.6,2.1,3,2.1,3.7
	C2,5,2,6.3,2.1,7.6c0.2,3,1.8,5.7,4.4,7.2c1.1,0.6,2,1.4,2.6,2.5c1.1,1.8,2.9,2.8,5,3.3c0.3,0.1,0.4,0.1,0.4,0.5
	c-0.1,1.3-0.1,2.6-0.2,3.9c-0.3,2.7-1.8,4.2-4.4,4.5c-0.6,0-1.2,0.4-1.4,1c-0.1,0.2-0.2,0.5-0.3,0.7C7.9,31.8,8.1,32,8.7,32h14.4
	c0.1,0,0.2,0,0.3,0c0.2,0,0.4-0.1,0.5-0.4c0-0.1,0-0.1,0-0.2c-0.1-0.4-0.2-0.7-0.4-1c-0.2-0.6-0.7-1-1.4-1c-2.5-0.3-3.8-1.6-4.3-4
	c-0.3-1.4-0.4-2.8-0.3-4.2c0-0.3,0.1-0.5,0.4-0.6c0,0,0,0,0,0c2.5-0.6,4.6-2.2,5.7-4.5c0.1-0.2,0.3-0.4,0.6-0.5c2.3-1,4.1-2.9,5-5.2
	C30.1,8.1,30.1,5.8,29.8,3.6z M7.4,12.9c-0.1-0.1-0.2-0.1-0.3-0.2c-1.7-1.3-2.8-3.2-3-5.3C4.1,6.7,4.1,5.9,4,5.2
	C4,4.9,4.1,4.7,4.3,4.7c0.1,0,0.1,0,0.2,0c1,0,1.9,0,2.9,0V12.9z M24.8,12.8c-0.1,0-0.2,0.1-0.2,0.1V4.7c1,0,2,0,3,0
	c0.2,0,0.3,0.2,0.4,0.3C28,8.1,27.4,10.9,24.8,12.8z"/>
</svg>
